_inc/images/systems/logos/sega.svg

<svg viewBox="0 0 3839 1161.9" xmlns="http://www.w3.org/2000/svg">
    <path class="st0" d="M507.8 808.4H0v158.4h507.8c97.5 0 178.7-81.2 178.7-178.7 0-97.5-81.2-178.7-178.7-178.7h-130c-117.8 0-215.3-97.5-215.3-215.3 0-117.8 97.5-215.4 215.3-215.4h503.7V20.3H373.7C166.6 20.3 0 186.9 0 394.1c0 207.2 166.6 373.7 373.7 373.7h130c12.2 0 20.3 8.1 20.3 20.3.1 12.2-8.1 20.3-16.2 20.3Z" style="fill:#fff"/>
    <path class="st0" d="M373.7 377.8h507.8V215.3H373.7C276.2 215.3 195 296.5 195 394c0 97.5 81.2 178.7 178.7 178.7h130C621.5 572.7 719 670.2 719 788c0 117.8-97.5 215.3-215.3 215.3H0v158.4h507.8c207.2 0 373.7-166.6 373.7-373.7S715 414.4 507.8 414.4h-130c-12.2 0-20.3-8.1-20.3-20.3 0-8.2 8.1-16.3 16.2-16.3Zm1824.1-162.5c-69.1 0-121.9 52.8-121.9 121.9V845c0 69.1 52.8 121.9 121.9 121.9h329.1V609.4H2275v158.4h93.4v36.6H2275c-20.3 0-36.6-16.2-36.6-36.6V410.3c0-20.3 16.2-36.6 36.6-36.6h450.9V215.3h-528.1Zm999.3 751.6h369.7l-251.9-747.5c-8.1-20.3-24.4-36.6-48.7-36.6-20.3 0-40.6 16.2-48.7 32.5l-325 946.5h186.9l113.7-337.2v142.2h4Zm65-341.3 52.8 162.5h-109.7l56.9-162.5Z" style="fill:#fff"/>
    <path class="st0" d="M3509.9 186.9C3477.4 81.2 3379.9 0 3262.1 0c-117.8 0-215.3 77.2-243.7 182.8l-296.6 869.4V414.4H2275v158.4h292.5v430.6h-365.6c-89.4 0-158.4-73.1-158.4-158.4V337.2c0-89.4 73.1-158.4 158.4-158.4H2726V20.3h-528.1c-174.7 0-316.9 142.2-316.9 316.9V845c0 174.7 142.2 316.9 316.9 316.9H2852l329.1-954.7c12.2-36.6 44.7-60.9 85.3-60.9 40.6 0 73.1 24.4 85.3 60.9l268.1 796.2h-422.5v158.4H3839l-329.1-974.9Zm-2234.3 816.5c-89.4 0-158.4-73.1-158.4-158.4V337.2c0-89.4 73.1-158.4 158.4-158.4H1820V20.3h-544.4c-174.7 0-316.9 142.2-316.9 316.9V845c0 174.7 142.2 316.9 316.9 316.9H1820v-158.4h-544.4Z" style="fill:#fff"/>
    <path class="st0" d="M1312.2 771.9h394.1V613.4h-552.5V849c0 69.1 52.8 121.9 121.9 121.9H1820V812.5h-471.2c-20.4-4.1-36.6-20.3-36.6-40.6Zm394-357.5h-394.1c0-20.3 16.2-36.6 36.6-36.6h467.2V215.3h-540.3c-69.1 0-121.9 52.8-121.9 121.9v235.6h552.5V414.4Z" style="fill:#fff"/>
</svg>

<?xml version="1.0" encoding="utf-8"?>
<svg version="1.1" viewBox="0 0 3839 1161.9" xmlns="http://www.w3.org/2000/svg">
  <path class="st0" d="M 507.8 808.4 L 0 808.4 L 0 966.8 L 507.8 966.8 C 605.3 966.8 686.5 885.6 686.5 788.1 C 686.5 690.6 605.3 609.4 507.8 609.4 L 377.8 609.4 C 260 609.4 162.5 511.9 162.5 394.1 C 162.5 276.3 260 178.7 377.8 178.7 L 881.5 178.7 L 881.5 20.3 L 373.7 20.3 C 166.6 20.3 0 186.9 0 394.1 C 0 601.3 166.6 767.8 373.7 767.8 L 503.7 767.8 C 515.9 767.8 524 775.9 524 788.1 C 524.1 800.3 515.9 808.4 507.8 808.4 Z" style="fill: rgb(255, 255, 255);"/>
  <path class="st0" d="M 373.7 377.8 L 881.5 377.8 L 881.5 215.3 L 373.7 215.3 C 276.2 215.3 195 296.5 195 394 C 195 491.5 276.2 572.7 373.7 572.7 L 503.7 572.7 C 621.5 572.7 719 670.2 719 788 C 719 905.8 621.5 1003.3 503.7 1003.3 L 0 1003.3 L 0 1161.7 L 507.8 1161.7 C 715 1161.7 881.5 995.1 881.5 788 C 881.5 580.9 715 414.4 507.8 414.4 L 377.8 414.4 C 365.6 414.4 357.5 406.3 357.5 394.1 C 357.5 385.9 365.6 377.8 373.7 377.8 Z" style="fill: rgb(255, 255, 255);"/>
  <path class="st0" d="M 2197.8 215.3 C 2128.7 215.3 2075.9 268.1 2075.9 337.2 L 2075.9 845 C 2075.9 914.1 2128.7 966.9 2197.8 966.9 L 2526.9 966.9 L 2526.9 609.4 L 2275 609.4 L 2275 767.8 L 2368.4 767.8 L 2368.4 804.4 L 2275 804.4 C 2254.7 804.4 2238.4 788.2 2238.4 767.8 L 2238.4 410.3 C 2238.4 390 2254.6 373.7 2275 373.7 L 2725.9 373.7 L 2725.9 215.3 L 2197.8 215.3 Z" style="fill: rgb(255, 255, 255);"/>
  <path class="st0" d="M 3197.1 966.9 L 3566.8 966.9 L 3314.9 219.4 C 3306.8 199.1 3290.5 182.8 3266.2 182.8 C 3245.9 182.8 3225.6 199 3217.5 215.3 L 2892.5 1161.8 L 3079.4 1161.8 L 3193.1 824.6 L 3193.1 966.8 L 3197.1 966.8 Z M 3262.1 625.6 L 3314.9 788.1 L 3205.2 788.1 L 3262.1 625.6 Z" style="fill: rgb(255, 255, 255);"/>
  <path class="st0" d="M 3509.9 186.9 C 3477.4 81.2 3379.9 0 3262.1 0 C 3144.3 0 3046.8 77.2 3018.4 182.8 L 2721.8 1052.2 L 2721.8 414.4 L 2275 414.4 L 2275 572.8 L 2567.5 572.8 L 2567.5 1003.4 L 2201.9 1003.4 C 2112.5 1003.4 2043.5 930.3 2043.5 845 L 2043.5 337.2 C 2043.5 247.8 2116.6 178.8 2201.9 178.8 L 2726 178.8 L 2726 20.3 L 2197.9 20.3 C 2023.2 20.3 1881 162.5 1881 337.2 L 1881 845 C 1881 1019.7 2023.2 1161.9 2197.9 1161.9 L 2852 1161.9 L 3181.1 207.2 C 3193.3 170.6 3225.8 146.3 3266.4 146.3 C 3307 146.3 3339.5 170.7 3351.7 207.2 L 3619.8 1003.4 L 3197.3 1003.4 L 3197.3 1161.8 L 3839 1161.8 L 3839 1161.8 L 3509.9 186.9 Z" style="fill: rgb(255, 255, 255);"/>
  <path class="st0" d="M 1275.6 1003.4 C 1186.2 1003.4 1117.2 930.3 1117.2 845 L 1117.2 337.2 C 1117.2 247.8 1190.3 178.8 1275.6 178.8 L 1820 178.8 L 1820 20.3 L 1275.6 20.3 C 1100.9 20.3 958.7 162.5 958.7 337.2 L 958.7 845 C 958.7 1019.7 1100.9 1161.9 1275.6 1161.9 L 1820 1161.9 L 1820 1003.5 L 1275.6 1003.5 Z" style="fill: rgb(255, 255, 255);"/>
  <path class="st0" d="M 1312.2 771.9 L 1706.3 771.9 L 1706.3 613.4 L 1153.8 613.4 L 1153.8 849 C 1153.8 918.1 1206.6 970.9 1275.7 970.9 L 1820 970.9 L 1820 812.5 L 1348.8 812.5 C 1328.4 808.4 1312.2 792.2 1312.2 771.9 Z" style="fill: rgb(255, 255, 255);"/>
  <path class="st0" d="M 1706.2 414.4 L 1312.1 414.4 C 1312.1 394.1 1328.3 377.8 1348.7 377.8 L 1815.9 377.8 L 1815.9 215.3 L 1275.6 215.3 C 1206.5 215.3 1153.7 268.1 1153.7 337.2 L 1153.7 572.8 L 1706.2 572.8 C 1706.2 572.8 1706.2 414.4 1706.2 414.4 Z" style="fill: rgb(255, 255, 255);"/>
</svg>
